assets/dude/We–Hank.svg

<svg width="233" height="102" viewBox="0 0 233 102" fill="none" xmlns="http://www.w3.org/2000/svg">
<path d="M102.02 0.719971C101.32 0.719971 100.76 1.27997 100.76 1.97997V34.74C100.76 35.44 101.32 36 102.02 36H117.42C117.98 36 118.26 36.28 118.26 36.56C118.26 36.98 117.84 37.82 117.84 37.82L107.06 61.9C106.36 63.3 105.8 63.72 105.1 63.72H92.6395C91.9395 63.72 91.3795 63.3 90.5395 61.76L79.8995 37.82C79.8995 37.82 79.4795 36.98 79.4795 36.56C79.4795 36.28 79.7595 36 80.3195 36H90.1195C90.8195 36 91.3795 35.44 91.3795 34.74V1.97997C91.3795 1.27997 90.8195 0.719971 90.1195 0.719971H52.5995C51.8995 0.719971 51.3395 1.27997 51.3395 1.97997V34.74C51.3395 35.44 51.8995 36 52.5995 36H64.4995C65.0595 36 65.3395 36.28 65.3395 36.56C65.3395 36.98 64.9195 37.82 64.9195 37.82L54.1395 61.9C53.4395 63.3 52.8795 63.72 52.1795 63.72H39.7195C39.0195 63.72 38.4595 63.3 37.6195 61.76L26.9795 37.82C26.9795 37.82 26.5595 36.98 26.5595 36.56C26.5595 36.28 26.8395 36 27.3995 36H40.6995C41.3995 36 41.9595 35.44 41.9595 34.74V1.97997C41.9595 1.27997 41.3995 0.719971 40.6995 0.719971H1.77953C1.07953 0.719971 0.519531 1.27997 0.519531 1.97997V34.74C0.519531 35.44 1.07953 36 1.77953 36H10.0395C10.7395 36 11.4395 36.56 11.9995 37.82L39.0195 98.86C39.2995 99.42 40.5595 101.52 43.4995 101.52C46.1595 101.52 47.5595 99.42 47.8395 98.86L68.4195 52.8C68.4195 52.8 69.1195 50.98 69.9595 50.98C70.7995 50.98 71.4995 52.8 71.4995 52.8L91.9395 98.86C92.2195 99.42 93.4795 101.52 96.4195 101.52C99.0795 101.52 100.48 99.42 100.76 98.86L127.92 37.82C128.48 36.56 129.18 36 129.88 36H140.94C141.64 36 142.2 35.44 142.2 34.74V1.97997C142.2 1.27997 141.64 0.719971 140.94 0.719971H102.02Z" fill="#FF1C31"/>
<path d="M231.053 99C231.753 99 232.312 98.44 232.312 97.74V57.84C232.312 57.14 231.753 56.58 231.053 56.58H223.773C223.073 56.58 222.512 57.14 222.512 57.84C222.512 61.2 219.713 63.72 216.213 63.72H176.872C176.172 63.72 175.613 63.02 175.613 62.46V54.9C175.613 54.2 176.172 53.64 176.872 53.64H188.632C189.332 53.64 189.893 54.2 189.893 54.9V56.16C189.893 56.86 190.452 57.42 191.152 57.42H210.053C210.753 57.42 211.312 56.86 211.312 56.16V43.56C211.312 42.86 210.753 42.3 210.053 42.3H191.152C190.452 42.3 189.893 42.86 189.893 43.56V44.82C189.893 45.52 189.332 46.08 188.632 46.08H176.872C176.172 46.08 175.613 45.52 175.613 44.82V37.26C175.613 36.56 176.172 36 176.872 36H216.213C219.713 36 222.512 38.38 222.512 41.88C222.512 42.58 223.073 43.14 223.773 43.14H231.053C231.753 43.14 232.312 42.58 232.312 41.88V1.97997C232.312 1.27997 231.753 0.719971 231.053 0.719971H150.412C149.712 0.719971 149.152 1.27997 149.152 1.97997V34.74C149.152 35.44 149.712 36 150.412 36H164.273C164.973 36 165.533 36.56 165.533 37.26V62.46C165.533 63.02 164.973 63.72 164.273 63.72H150.412C149.712 63.72 149.152 64.42 149.152 64.98V97.74C149.152 98.44 149.712 99 150.412 99H231.053Z" fill="#FF1C31"/>
</svg>

<svg xmlns="http://www.w3.org/2000/svg" fill="none" viewBox="0 0 233 102"><path fill="#FF1C31" d="M102.02.72c-.7 0-1.26.56-1.26 1.26v32.76c0 .7.56 1.26 1.26 1.26h15.4c.56 0 .84.28.84.56 0 .42-.42 1.26-.42 1.26L107.06 61.9c-.7 1.4-1.26 1.82-1.96 1.82H92.64c-.7 0-1.26-.42-2.1-1.96L79.9 37.82s-.42-.84-.42-1.26c0-.28.28-.56.84-.56h9.8c.7 0 1.26-.56 1.26-1.26V1.98c0-.7-.56-1.26-1.26-1.26H52.6c-.7 0-1.26.56-1.26 1.26v32.76c0 .7.56 1.26 1.26 1.26h11.9c.56 0 .84.28.84.56 0 .42-.42 1.26-.42 1.26L54.14 61.9c-.7 1.4-1.26 1.82-1.96 1.82H39.72c-.7 0-1.26-.42-2.1-1.96L26.98 37.82s-.42-.84-.42-1.26c0-.28.28-.56.84-.56h13.3c.7 0 1.26-.56 1.26-1.26V1.98c0-.7-.56-1.26-1.26-1.26H1.78c-.7 0-1.26.56-1.26 1.26v32.76c0 .7.56 1.26 1.26 1.26h8.26c.7 0 1.4.56 1.96 1.82l27.02 61.04c.28.56 1.54 2.66 4.48 2.66 2.66 0 4.06-2.1 4.34-2.66L68.42 52.8s.7-1.82 1.54-1.82c.84 0 1.54 1.82 1.54 1.82l20.44 46.06c.28.56 1.54 2.66 4.48 2.66 2.66 0 4.06-2.1 4.34-2.66l27.16-61.04c.56-1.26 1.26-1.82 1.96-1.82h11.06c.7 0 1.26-.56 1.26-1.26V1.98c0-.7-.56-1.26-1.26-1.26h-38.92zM231.053 99c.7 0 1.259-.56 1.259-1.26v-39.9c0-.7-.559-1.26-1.259-1.26h-7.28c-.7 0-1.261.56-1.261 1.26 0 3.36-2.799 5.88-6.299 5.88h-39.341c-.7 0-1.259-.7-1.259-1.26V54.9c0-.7.559-1.26 1.259-1.26h11.76c.7 0 1.261.56 1.261 1.26v1.26c0 .7.559 1.26 1.259 1.26h18.901c.7 0 1.259-.56 1.259-1.26v-12.6c0-.7-.559-1.26-1.259-1.26h-18.901c-.7 0-1.259.56-1.259 1.26v1.26c0 .7-.561 1.26-1.261 1.26h-11.76c-.7 0-1.259-.56-1.259-1.26v-7.56c0-.7.559-1.26 1.259-1.26h39.341c3.5 0 6.299 2.38 6.299 5.88 0 .7.561 1.26 1.261 1.26h7.28c.7 0 1.259-.56 1.259-1.26V1.98c0-.7-.559-1.26-1.259-1.26h-80.641c-.7 0-1.26.56-1.26 1.26v32.76c0 .7.56 1.26 1.26 1.26h13.861c.7 0 1.26.56 1.26 1.26v25.2c0 .56-.56 1.26-1.26 1.26h-13.861c-.7 0-1.26.7-1.26 1.26v32.76c0 .7.56 1.26 1.26 1.26h80.641z"/></svg>
